X: 1
T: Bridget O'Malley
O: Ireland
R: waltz
Z: 2017 John Chambers <jc:trillian.mit.edu>
M: 3/4
L: 1/8
K: C
% - - - - - - - - - -
A,2 |\
"C"C3 D EF | "Em"G2 E3 G | "F"A2 GE DE | "Am"CA, z2 AB |\
"F"c3 B AB | "Em"AG E3 D | "Am"E2 A3 G | "F"A4 AB |
"Dm"c2 cB AB | "C"AG E3 F | "F"GE D2 E2 | "Am"CA, z2 A,B, |\
"Dm"C2 A2 GA | "Em"E2 D3 E | "F"D2 C2 "G"CD | "C"C6 | z4 |]

%%sep 1 1 500
%%sep 1 1 500

